public/images/Vector.svg

<svg fill="none" height="86" viewBox="0 0 143 86" width="143" xmlns="http://www.w3.org/2000/svg"><g clip-rule="evenodd" fill="#1a1a1a" fill-rule="evenodd"><path d="m102.808 80.9141c12.731.3078 25.741-.3078 37.913 4.0574.726.2574 1.524-.1176 1.786-.8451.257-.7275-.117-1.5278-.842-1.7908-12.458-4.4659-25.763-3.9063-38.79-4.2197-.77-.0224-1.412.5932-1.428 1.3655-.023.7723.591 1.4103 1.361 1.4327z"/><path d="m101.664 62.3805c3.968-3.6611 8.299-6.4039 13.535-7.7633.747-.1936 1.194-.9575 1.004-1.7052-.195-.7477-.96-1.1971-1.702-1.0034-5.693 1.4774-10.409 4.4334-14.7232 8.4119-.5693.5227-.6084 1.4086-.0838 1.9772.519.5681 1.406.6055 1.97.0828z"/><path d="m90.6248 22.4094c1.8195-6.2539 5.4026-11.1463 10.8942-14.67931.648-.41693.837-1.28324.419-1.93298-.413-.64974-1.278-.83892-1.926-.42199-6.0776 3.91188-10.0514 9.32578-12.0662 16.25028-.2177.7409.2121 1.5189.9488 1.7349.7423.2166 1.5181-.2099 1.7302-.9509z"/><path d="m27.9199 13.9219c-1.0828 1.2777-2.0539 2.6544-2.8799 4.1201-.3684.6525-1.0158 2.0393-1.1163 3.2285-.1116 1.267.3181 2.336 1.4232 2.899 1.4678.7465 2.6399.6688 3.5441.2171.8707-.4337 1.5515-1.286 1.9813-2.4288.8204-2.1843.6976-5.5225.2679-7.4275 1.1553-1.1954 2.4222-2.2795 3.7784-3.2432 10.102-7.17735 24.9201-4.53081 36.3225 6.2008 3.9906 3.7575 5.9105 11.6484 6.9095 20.1622 1.5572 13.2561.6698 28.062.547 32.3998-.0279 1.0711.0725 1.7068.1283 1.8339.2623.6245.7256.7868 1.0493.8484.4688.0839.8427-.0056 1.1441-.1623.4074-.2149.7424-.5932.8986-1.1769.0837-.3224.106-.7712.0949-1.2497-.0112-.3319-.0782-.6945-.0112-.9324.4353-1.5233.96-3.0108 1.4734-4.509 1.7135-5.0362 3.9292-9.7556 6.3905-14.4695 7.8193-14.9781 15.3815-30.8042 28.2015-42.21581.575-.51207.631-1.39741.118-1.97496-.508-.57755-1.39-.63017-1.971-.11754-13.076 11.63711-20.8454 27.73571-28.8209 43.01051-2.093 4.0098-4.013 8.0253-5.6092 12.2254.1619-7.4298.1005-17.7143-1.2557-26.814-1.2056-8.093-3.4994-15.2452-7.3784-18.898-12.4907-11.7563-28.7822-14.30657-39.8441-6.44364-1.1832.8417-2.3106 1.76734-3.3599 2.77134-5.7877-10.47923-18.1779-14.67936-29.128246-9.66722-.703231.32067-1.010191 1.15118-.692063 1.85353.323709.70235 1.149699 1.0124 1.852929.69173 9.86758-4.516295 21.05788-.48579 25.94148 9.26816zm.8092 3.5084c-.4521.6402-.8707 1.304-1.2613 1.9901-.2065.3682-.5638 1.0762-.7144 1.769-.0335.1623-.0391.4164-.0391.5339.3851.1903.6865.2821.932.1584.307-.1522.4633-.5104.614-.9106.3795-1.004.5023-2.3348.4688-3.5408z"/></g></svg>

<svg width="143" height="86" viewBox="0 0 143 86" fill="none" xmlns="http://www.w3.org/2000/svg">
<path fill-rule="evenodd" clip-rule="evenodd" d="M102.808 80.9141C115.539 81.2219 128.549 80.6063 140.721 84.9715C141.447 85.2289 142.245 84.8539 142.507 84.1264C142.764 83.3989 142.39 82.5986 141.665 82.3356C129.207 77.8697 115.902 78.4293 102.875 78.1159C102.105 78.0935 101.463 78.7091 101.447 79.4814C101.424 80.2537 102.038 80.8917 102.808 80.9141Z" fill="#1A1A1A"/>
<path fill-rule="evenodd" clip-rule="evenodd" d="M101.664 62.3805C105.632 58.7194 109.963 55.9766 115.199 54.6172C115.946 54.4236 116.393 53.6597 116.203 52.912C116.008 52.1643 115.243 51.7149 114.501 51.9086C108.808 53.386 104.092 56.342 99.7778 60.3205C99.2085 60.8432 99.1694 61.7291 99.694 62.2977C100.213 62.8658 101.1 62.9032 101.664 62.3805Z" fill="#1A1A1A"/>
<path fill-rule="evenodd" clip-rule="evenodd" d="M90.6248 22.4094C92.4443 16.1555 96.0274 11.2631 101.519 7.73009C102.167 7.31316 102.356 6.44685 101.938 5.79711C101.525 5.14737 100.66 4.95819 100.012 5.37512C93.9344 9.287 89.9606 14.7009 87.9458 21.6254C87.7281 22.3663 88.1579 23.1443 88.8946 23.3603C89.6369 23.5769 90.4127 23.1504 90.6248 22.4094Z" fill="#1A1A1A"/>
<path fill-rule="evenodd" clip-rule="evenodd" d="M27.9199 13.9219C26.8371 15.1996 25.866 16.5763 25.04 18.042C24.6716 18.6945 24.0242 20.0813 23.9237 21.2705C23.8121 22.5375 24.2418 23.6065 25.3469 24.1695C26.8147 24.916 27.9868 24.8383 28.891 24.3866C29.7617 23.9529 30.4425 23.1006 30.8723 21.9578C31.6927 19.7735 31.5699 16.4353 31.1402 14.5303C32.2955 13.3349 33.5624 12.2508 34.9186 11.2871C45.0206 4.10975 59.8387 6.75629 71.2411 17.4879C75.2317 21.2454 77.1516 29.1363 78.1506 37.6501C79.7078 50.9062 78.8204 65.7121 78.6976 70.0499C78.6697 71.121 78.7701 71.7567 78.8259 71.8838C79.0882 72.5083 79.5515 72.6706 79.8752 72.7322C80.344 72.8161 80.7179 72.7266 81.0193 72.5699C81.4267 72.355 81.7617 71.9767 81.9179 71.393C82.0016 71.0706 82.0239 70.6218 82.0128 70.1433C82.0016 69.8114 81.9346 69.4488 82.0016 69.2109C82.4369 67.6876 82.9616 66.2001 83.475 64.7019C85.1885 59.6657 87.4042 54.9463 89.8655 50.2324C97.6848 35.2543 105.247 19.4282 118.067 8.01659C118.642 7.50452 118.698 6.61918 118.185 6.04163C117.677 5.46408 116.795 5.41146 116.214 5.92409C103.138 17.5612 95.3686 33.6598 87.3931 48.9346C85.3001 52.9444 83.3801 56.9599 81.7839 61.16C81.9458 53.7302 81.8844 43.4457 80.5282 34.346C79.3226 26.253 77.0288 19.1008 73.1498 15.448C60.6591 3.6917 44.3676 1.14143 33.3057 9.00436C32.1225 9.84606 30.9951 10.7717 29.9458 11.7757C24.1581 1.29647 11.7679 -2.90366 0.817554 2.10848C0.114323 2.42915 -0.192637 3.25966 0.125491 3.96201C0.4492 4.66436 1.27519 4.97441 1.97842 4.65374C11.846 0.137445 23.0363 4.16795 27.9199 13.9219ZM28.7291 17.4303C28.277 18.0705 27.8584 18.7343 27.4678 19.4204C27.2613 19.7886 26.904 20.4966 26.7534 21.1894C26.7199 21.3517 26.7143 21.6058 26.7143 21.7233C27.0994 21.9136 27.4008 22.0054 27.6463 21.8817C27.9533 21.7295 28.1096 21.3713 28.2603 20.9711C28.6398 19.9671 28.7626 18.6363 28.7291 17.4303Z" fill="#1A1A1A"/>
</svg>
